Catalina-dark/actions/16/snap-nodes-intersection.svg

<?xml version="1.0" encoding="UTF-8" standalone="no"?>
<svg
   xmlns:dc="http://purl.org/dc/elements/1.1/"
   xmlns:cc="http://creativecommons.org/ns#"
   xmlns:rdf="http://www.w3.org/1999/02/22-rdf-syntax-ns#"
   xmlns:svg="http://www.w3.org/2000/svg"
   xmlns="http://www.w3.org/2000/svg"
   xmlns:sodipodi="http://sodipodi.sourceforge.net/DTD/sodipodi-0.dtd"
   xmlns:inkscape="http://www.inkscape.org/namespaces/inkscape"
   width="16"
   height="16"
   viewBox="0 0 16 16"
   version="1.1"
   id="svg7"
   sodipodi:docname="snap-nodes-intersection.svg"
   inkscape:version="0.92.4 5da689c313, 2019-01-14">
  <metadata
     id="metadata11">
    <rdf:RDF>
      <cc:Work
         rdf:about="">
        <dc:format>image/svg+xml</dc:format>
        <dc:type
           rdf:resource="http://purl.org/dc/dcmitype/StillImage" />
      </cc:Work>
    </rdf:RDF>
  </metadata>
  <sodipodi:namedview
     pagecolor="#ffffff"
     bordercolor="#666666"
     borderopacity="1"
     objecttolerance="10"
     gridtolerance="10"
     guidetolerance="10"
     inkscape:pageopacity="0"
     inkscape:pageshadow="2"
     inkscape:window-width="640"
     inkscape:window-height="480"
     id="namedview9"
     showgrid="false"
     inkscape:zoom="14.75"
     inkscape:cx="6.8135593"
     inkscape:cy="8"
     inkscape:window-x="0"
     inkscape:window-y="26"
     inkscape:window-maximized="0"
     inkscape:current-layer="svg7" />
  <defs
     id="defs3">
    <style
       id="current-color-scheme"
       type="text/css">
   .ColorScheme-Text { color:#5c616c; } .ColorScheme-Highlight { color:#5294e2; }
  </style>
  </defs>
  <path
     style="fill:#f1f6f8;fill-opacity:0.8509804"
     class="ColorScheme-Text"
     d="M 14.990234 0.49414062 A 0.50005 0.50005 0 0 0 14.646484 0.64453125 L 8.7910156 6.5 L 6.5 6.5 L 6.5 7.90625 L 0.86328125 9.5175781 A 0.50005 0.50005 0 1 0 1.1367188 10.478516 L 6.2832031 9.0078125 L 0.64648438 14.644531 A 0.50005 0.50005 0 1 0 1.3535156 15.351562 L 7.2050781 9.5 L 9.5 9.5 L 9.5 8.0898438 L 15.136719 6.4785156 A 0.50005 0.50005 0 0 0 14.996094 5.4960938 A 0.50005 0.50005 0 0 0 14.863281 5.5175781 L 9.7167969 6.9882812 L 15.353516 1.3515625 A 0.50005 0.50005 0 0 0 14.990234 0.49414062 z"
     id="path5" />
</svg>

<svg width="16" height="16" version="1.1" viewBox="0 0 16 16" xmlns="http://www.w3.org/2000/svg">
<defs>
<style id="current-color-scheme" type="text/css">.ColorScheme-Text { color:#5c616c; } .ColorScheme-Highlight { color:#5294e2; }</style>
</defs>
<path class="ColorScheme-Text" d="m14.99 0.49414a0.50005 0.50005 0 0 0-0.34375 0.15039l-5.8555 5.8555h-2.291v1.4062l-5.6367 1.6113a0.50005 0.50005 0 1 0 0.27344 0.96094l5.1465-1.4707-5.6367 5.6367a0.50005 0.50005 0 1 0 0.70703 0.70703l5.8516-5.8516h2.2949v-1.4102l5.6367-1.6113a0.50005 0.50005 0 0 0-0.14062-0.98242 0.50005 0.50005 0 0 0-0.13281 0.021484l-5.1465 1.4707 5.6367-5.6367a0.50005 0.50005 0 0 0-0.36328-0.85742z" fill="#f1f6f8" fill-opacity=".85098"/>
</svg>
